X:19
T: Die Raubritter
N: A0380
O: Europa, Mitteleuropa, Deutschland
N: Hs. auf einem Vorsatzblatt aus dem Anfang des 16. Jh.
R: Romanze, Ballade, Lied, Personenlied
M: 4/2
L: 1/4
K: G
G4 | _B2c2d2e2 | =f4d4
c4 | d4_B2c2A4 | G4
G4 | _B2c2d2e2 | =f4d4
c4 | d4_B2c2A4 | G4z2
_B2 | A3_Bc2d4c2 | _B4A4z2
B2 | A4_B2c4BA | G4=F4
G4 | A4_B2A4G=F | E4D4
d4 | d4_B2c2A4 | G4

